X: 1
T:Top Hat Tom
M:C|
L:1/8
Q:80
C:Composed by T. Tully
S:Hornpipe
K:HP
|: f|
{g}A/2B/2{g}d/2e/2{g}f/2A/2{gde}d/2B/2|
{g}A/2d/2{c}d/2e/2{g}f/2A/2{gde}d/2B/2|
{g}A/2B/2c/2d/2{gef}e/2A/2{gcd}c/2e/2|  !
{g}A/2B/2c/2d/2{g}e/2f/2{a}g/2e/2{g}A/2B/2{g}d/2e/2{g}f/2A/2{gde}d/2B/2|

{g}A/2d/2{c}d/2e/2{g}f/2A/2{gde}d/2B/2|
{g}A/2B/2c/2d/2{gef}e/2A/2{gcd}c/2e/2|  !
{a}g/2e/2{gde}d/2c/2{g}d:| |:
{g}f/2g/2|
{ag}aA/2{d}B/2{g}f/2A/2{g}B/2d/2|  !
{g}A/2{d}B/2{a}g/2f/2{gef}e3/2f/2|
{gf}gA/2{d}c/2{gef}e/2A/2{gcd}c/2e/2|
{a}g/2a/2e/2g/2{a}f3/2g/2{ag}aA/2{d}B/2{g}f/2A/2{g}B/2d/2|  !
{g}A/2{d}B/2{a}g/2f/2{gef}e3/2f/2|
{gf}gA/2{d}c/2{gef}e/2A/2{gcd}c/2e/2|
{a}g/2e/2{gde}d/2c/2{g}d:| |:  !
f|
{gAGAG}A{g}f/2A/2{g}B/2d/2{e}A/2{d}B/2|
{g}f/2A/2{g}B/2d/2{g}B/2g/2{a}f/2e/2|
{gAGAG}A{g}e/2A/2{gcd}c/2e/2{g}A/2{d}c/2|  !
{g}e/2A/2{gcd}c/2e/2{g}A/2{d}B/2{a}g/2e/2{gAGAG}A{g}f/2A/2{g}B/2d/2{e}A/
2{d}B/2|
{g}f/2A/2{g}B/2d/2{g}B/2g/2{a}f/2e/2|
{gAGAG}A{g}e/2A/2{gcd}c/2e/2{g}A/2{d}c/2|  !
{a}g/2e/2{gde}d/2c/2{g}d:| |:
f|
{g}A/2d/2{c}d/2A/2{gdedc}d{g}f/2A/2|
{g}A/2d/2{c}d/2A/2{gdedc}d{g}f/2A/2|  !
{g}A/2c/2{G}c/2A/2{gcecG}c{g}A/2{d}c/2|
{a}g/2e/2{gcd}c/2e/2{g}A/2{d}c/2{a}g/2e/2{g}A/2d/2{c}d/2A/2{gdedc}d{g}f/
2A/2|
{g}A/2d/2{c}d/2A/2{gdedc}d{g}f/2A/2|  !
{g}A/2c/2{G}c/2A/2{gcecG}c{g}A/2{d}c/2|
{a}g/2e/2{gde}d/2c/2{g}d:| |:
{g}f/2g/2|  !
{ag}aA/2{d}B/2{g}f/2A/2{g}B/2d/2|
{g}A/2{d}B/2{g}f/2A/2{a}g/2f/2{g}e/2f/2|
{gf}gA/2{d}c/2{g}e/2A/2{gcd}c/2e/2|  !
{g}A/2{d}c/2{gef}e/2A/2{g}f/2e/2{g}d/2f/2{ag}aA/2{d}B/2{g}f/2A/2{g}B/2d/
2|
{g}A/2{d}B/2{g}f/2A/2{a}g/2f/2{g}e/2f/2|
{gf}gA/2{d}c/2{g}e/2A/2{gcd}c/2e/2|  !
{a}g/2e/2{gde}d/2c/2{g}d:|
